var root;
root =  "/Users/iani/Documents/Projects/MARES_MasterCourseHonorato202501ff/Mentees/004-barinova-osbanova/Data/fishwavdata/channel_1.wav";
~buffer = Buffer.read(Server.default, root);
//:
~buffer;
~buffer.play;
//:
